X: 38904
T: Sunshine, The
R: hornpipe
M: 4/4
K: Amajor
cd|(3eae (3cec (3AcA ED|CEAc ecAc|(3ded (3cdc (3BcB (3ABA|GeFe E2cd|
(3eae (3cec (3AcA ED|CEAc defg|(3agf (3edc (3fed (3cBA|(3GAB (3EFG A2:|
|:Bc|dBGB EGBc|dBGB d2fa|ec (3AcA EA (3cd^d|ec (3Ace a2ga|
fdBd (3fed (3cBA|(3GAB (3AGF E2cd|eafd cABG|Aaec A2:|
cd|(3eae (3cec (3AcA ED|CEAc ecAc|(3dbb (3caa (3Bgg (3Aff|(3Gee (3F^dd e2c=d|
(3eae (3cec (3AcA ED|CEAc defg|(3agf (3edc (3fed (3cBA|(3GAB (3EFG A2||
Bc|dBGB EGBc|dBGB d2fa|ec (3AcA EA (3cd^d|ec (3Ace a2g2|
(3fgf (3efe (3ded (3cdc|Bcde fefg|(3agf (3edc (3fed (3cBA|(3GAB (3EFG A2||

